X: 248
T:Terry Teehan's
C:Traditional
N:Play 3 times through
Z:Gordon Turnbull, Edinburgh
R:Slide
M:12/8
L:1/8
K:EDor
e3B2 A GFE B2 A | FED A2 F Bcd B2 d |\
e3B2 A GFE B2 A | FED F2A F2 E E3 :|
B2 e ede f2 a afa | baf a2 f e2 d B2 A |\
B2 e ede f2 a a2 f | baf a2 f e3 e2 d ||
B2 e ede f2 a afa | baf a2 f e2 d B2 d |\
f3 f2 e dBA B2 A | FED F2A F2 E E2 |]
"Part 1 Variation" e3B2 A GFE B2 A | FED A2 F d2 F B2 d |\
e3B2 A GFE B2 A | FED F2A F2 E E3 :|
<end>
<start>
